public/assets/techs/python.svg

<svg width="20" height="20" viewBox="0 0 20 20" fill="none" xmlns="http://www.w3.org/2000/svg">
<g clip-path="url(#clip0_310_83)">
<path d="M9.23828 19.9187C7.15296 19.7013 5.88493 18.9458 5.39448 17.6286C5.3082 17.3969 5.30095 17.2856 5.279 15.8561L5.25558 14.3308L3.94214 14.3079L2.62869 14.2849L2.29015 14.167C-0.735083 13.1136 -0.735083 6.87615 2.29015 5.8071L2.62869 5.68746L6.10296 5.66628L9.57723 5.64509V5.43325V5.2214L7.43759 5.20022L5.29795 5.17903V3.90796C5.29795 2.32912 5.37611 2.04213 5.98529 1.38414C7.72885 -0.499118 12.7412 -0.411519 14.1989 1.52769C14.7167 2.21643 14.7387 2.31694 14.7657 4.1198L14.7886 5.64509L16.1021 5.66803L17.4155 5.69097L17.7541 5.80885C19.1866 6.30765 19.9789 7.79593 19.9789 9.98794C19.9789 12.1797 19.1905 13.6612 17.7541 14.1688L17.4155 14.2884L13.9413 14.3096L10.467 14.3308V14.5426V14.7545L12.6066 14.7757L14.7463 14.7969V16.0679C14.7463 18.9306 12.8015 20.2902 9.23828 19.9187ZM11.3567 19.0102C13.2201 18.6961 13.9398 17.971 13.9408 16.4069L13.9413 15.6442L11.8267 15.6333C9.29056 15.6201 9.59842 15.7707 9.59842 14.5426C9.59842 13.3058 9.01542 13.466 13.5632 13.4525L17.4155 13.441L17.6668 13.3234C19.6815 12.3799 19.6815 7.59603 17.6668 6.65252L17.4155 6.53486H16.1021H14.7886L14.7637 7.61527C14.7478 8.30676 14.7193 8.7567 14.6848 8.86517C14.4768 9.51767 13.9511 10.0533 13.2845 10.2917L13.0091 10.3902L10.0221 10.4115L7.03509 10.4328L6.85311 10.53C6.57264 10.6797 6.35017 10.904 6.22078 11.1675L6.10297 11.4073V14.2884C6.10297 17.5482 6.08709 17.3821 6.44525 17.8686C7.19276 18.884 9.25773 19.364 11.3567 19.0102ZM11.9134 17.7241C11.1678 17.4481 11.1752 16.3972 11.9244 16.1388C12.4725 15.9498 13.0266 16.3517 13.0294 16.9404C13.032 17.4888 12.4264 17.914 11.9134 17.7241ZM5.27779 12.3394L5.29999 11.2378L5.41117 10.9763C5.67991 10.3443 6.13396 9.91094 6.76694 9.68245L7.03508 9.58566L10.0221 9.56436L13.0091 9.54307L13.1911 9.4459C13.4716 9.29614 13.694 9.07187 13.8234 8.80844L13.9413 8.56857L13.9536 5.7979C13.9666 2.87421 13.9615 2.77898 13.7698 2.36545C12.8953 0.479059 7.77669 0.298637 6.44525 2.10728C6.14266 2.51831 6.10399 2.68369 6.10344 3.569L6.10296 4.33165L8.21755 4.34264C10.7536 4.35582 10.4458 4.20514 10.4458 5.43325C10.4458 6.67014 11.0288 6.50984 6.48099 6.52338L2.62869 6.53485L2.33858 6.67225C0.454317 7.56467 0.373508 12.299 2.22628 13.2511C2.6122 13.4495 2.68567 13.4576 4.00568 13.4491L5.25557 13.441L5.27779 12.3394ZM7.56596 3.83963C6.92741 3.58478 6.82037 2.71693 7.38345 2.35984C7.97097 1.98724 8.67453 2.35529 8.68248 3.03939C8.6892 3.6182 8.08901 4.04838 7.56596 3.83963Z" fill="#EEEEEE"/>
</g>
<defs>
<clipPath id="clip0_310_83">
<rect width="20" height="20" fill="white"/>
</clipPath>
</defs>
</svg>

<svg xmlns="http://www.w3.org/2000/svg" width="20" height="20" fill="none" xmlns:v="https://vecta.io/nano"><g clip-path="url(#A)"><path d="M9.238 19.919c-2.085-.217-3.353-.973-3.844-2.29-.086-.232-.094-.343-.115-1.772l-.023-1.525-1.313-.023-1.313-.023-.339-.118c-3.025-1.053-3.025-7.291 0-8.36l.339-.12 3.474-.021 3.474-.021v-.212-.212L7.438 5.2l-2.14-.021V3.908c0-1.579.078-1.866.687-2.524 1.744-1.883 6.756-1.796 8.214.144.518.689.54.789.567 2.592l.023 1.525 1.313.023 1.313.023.339.118c1.432.499 2.225 1.987 2.225 4.179s-.788 3.673-2.225 4.181l-.339.12-3.474.021-3.474.021v.212.212l2.14.021 2.14.021v1.271c0 2.863-1.945 4.222-5.508 3.851zm2.119-.909c1.863-.314 2.583-1.039 2.584-2.603v-.763l-2.115-.011c-2.536-.013-2.228.137-2.228-1.091 0-1.237-.583-1.077 3.965-1.09l3.852-.011.251-.118c2.015-.944 2.015-5.727 0-6.671l-.251-.118h-1.313-1.313l-.025 1.08-.079 1.25c-.208.652-.734 1.188-1.4 1.427l-.275.098-2.987.021-2.987.021-.182.097a1.47 1.47 0 0 0-.632.638l-.118.24v2.881c0 3.26-.016 3.094.342 3.58.748 1.015 2.812 1.495 4.912 1.142zm.557-1.286c-.746-.276-.738-1.327.011-1.585.548-.189 1.102.213 1.105.802a.86.86 0 0 1-1.116.784zm-6.636-5.385l.022-1.102.111-.261c.269-.632.723-1.065 1.356-1.294l.268-.097 2.987-.021 2.987-.021.182-.097a1.47 1.47 0 0 0 .632-.637l.118-.24.012-2.771c.013-2.924.008-3.019-.184-3.432C12.895.479 7.777.299 6.445 2.107c-.303.411-.341.576-.342 1.462v.763l2.115.011c2.536.013 2.228-.138 2.228 1.091 0 1.237.583 1.077-3.965 1.09l-3.852.011-.29.137c-1.884.892-1.965 5.627-.112 6.579.386.198.459.207 1.779.198l1.25-.008.022-1.102zm2.288-8.5c-.639-.255-.746-1.123-.183-1.48.588-.373 1.291-.005 1.299.68.007.579-.593 1.009-1.117.8z" fill="#ffd845"/></g><defs><clipPath id="A"><path fill="#fff" d="M0 0h20v20H0z"/></clipPath></defs></svg>
